svg/color/polyx.svg

<svg width="40" height="40" viewBox="0 0 40 40" fill="none" xmlns="http://www.w3.org/2000/svg">
<circle cx="20" cy="20" r="20" fill="white"/>
<path d="M24.7716 18.9618C24.1713 19.4945 23.1939 19.7832 21.792 19.7832H15.5216V29.3374H18.1436V22.2682H22.1208C23.3702 22.2682 24.4634 22.0444 25.3938 21.5887L25.3954 21.5879C26.3422 21.1145 27.0854 20.4487 27.619 19.5912C28.155 18.7296 28.4186 17.7115 28.4186 16.5458C28.4186 15.3862 28.1577 14.2054 27.619 13.3397C27.0853 12.482 26.3419 11.8251 25.3946 11.3699C24.4639 10.8956 23.3703 10.6626 22.1208 10.6626H15.5216V13.1476H21.792C23.1949 13.1476 24.1727 13.4367 24.7728 13.9701C25.3664 14.4978 25.687 15.4454 25.687 16.5458C25.687 17.6151 25.3733 18.4095 24.7716 18.9618Z" fill="url(#paint0_linear_2112_20727)"/>
<path fill-rule="evenodd" clip-rule="evenodd" d="M40 20C40 31.0457 31.0457 40 20 40C8.9543 40 0 31.0457 0 20C0 8.9543 8.9543 0 20 0C31.0457 0 40 8.9543 40 20ZM37.38 20C37.38 29.5987 29.5987 37.38 20 37.38C10.4013 37.38 2.62 29.5987 2.62 20C2.62 10.4013 10.4013 2.62 20 2.62C29.5987 2.62 37.38 10.4013 37.38 20Z" fill="url(#paint1_linear_2112_20727)"/>
<defs>
<linearGradient id="paint0_linear_2112_20727" x1="92.3373" y1="10.3034" x2="92.2666" y2="46.2934" gradientUnits="userSpaceOnUse">
<stop stop-color="#FF2E72"/>
<stop offset="0.934908" stop-color="#4A125E"/>
</linearGradient>
<linearGradient id="paint1_linear_2112_20727" x1="92.3373" y1="10.3034" x2="92.2666" y2="46.2934" gradientUnits="userSpaceOnUse">
<stop stop-color="#FF2E72"/>
<stop offset="0.934908" stop-color="#4A125E"/>
</linearGradient>
</defs>
</svg>

<svg xmlns="http://www.w3.org/2000/svg" width="40" height="40" fill="none" viewBox="0 0 40 40"><circle cx="20" cy="20" r="20" fill="#fff"/><path fill="url(#polyx_svg-a)" d="M24.772 18.962c-.6.532-1.578.821-2.98.821h-6.27v9.554h2.622v-7.069h3.977q1.876.002 3.273-.68h.001q1.422-.711 2.224-1.997c.536-.861.8-1.88.8-3.045 0-1.16-.261-2.34-.8-3.206q-.802-1.287-2.224-1.97-1.398-.709-3.274-.707h-6.6v2.485h6.271c1.403 0 2.38.289 2.98.822.594.528.915 1.475.915 2.576 0 1.07-.314 1.864-.915 2.416"/><path fill="url(#polyx_svg-b)" fill-rule="evenodd" d="M40 20c0 11.046-8.954 20-20 20S0 31.046 0 20 8.954 0 20 0s20 8.954 20 20m-2.62 0c0 9.599-7.781 17.38-17.38 17.38S2.62 29.599 2.62 20 10.401 2.62 20 2.62 37.38 10.401 37.38 20" clip-rule="evenodd"/><defs><linearGradient id="polyx_svg-a" x1="92.337" x2="92.267" y1="10.303" y2="46.293" gradientUnits="userSpaceOnUse"><stop stop-color="#FF2E72"/><stop offset=".935" stop-color="#4A125E"/></linearGradient><linearGradient id="polyx_svg-b" x1="92.337" x2="92.267" y1="10.303" y2="46.293" gradientUnits="userSpaceOnUse"><stop stop-color="#FF2E72"/><stop offset=".935" stop-color="#4A125E"/></linearGradient></defs></svg>
